X: 329
T: Humors of Clare
C: anon.
O: Ireland
B: Francis O'Neill: "The Dance Music of Ireland" (1907) no. 329
R: Double jig
Z: Transcribed by Frank Nordberg - http://www.musicaviva.com
F: http://www.musicaviva.com/abc/tunes/ireland/oneill-1001/oneill-1001-032
9.abc
m: Tn2 = (3n/o/n/ m/n/
M: 6/8
L: 1/8
K: Dmix
D3 FDF|ECE (TG2E)|D>ED F2G|ABc BGE|D3 FDF|ECE (TG2E)|AGE ({d}c2)A|[1GEC C
DE:|[2GEC EFG||
|:A2G FEF|DEF (TG2E)|A2G FEF|ABc BGE|A2G FEF|DEF(TG2E)|AGE ({d}c2)A|[1GEC
 CDE:|[2GEC EFG||
|:dAG FDF|ECE (TG2E)|dAG F2G|ABc BGE|dAG FDF|ECE (TG2E)|AGE ({d}c2)A|[1GE
C CDE:|[2GEC EFG||
W:
W:
W: From Musica Viva - http://www.musicaviva.com
W: the Internet center for free sheet music downloads.


